!!!OTL: 1619. Der Gesellen Rache.
!!!ODT: 1880
!!!ARE: Europa, Mitteleuropa, Deutschland, Ober - Hessen, Nassau
!!!SCT: E1619
!!!TXL: @@DE
!!!YEM: Copyright 1995, estate of Helmut Schaffrath.
**kern	**text
*ICvox	*
*M2/4	*
*k[f#]	*
*G:	*
=1	=1
!LO:TX:a:t=Marschmäßig.	!
!LO:TX:a:t=Aus Oberheſſen u. dem Naſſauerlande 1880.	!
4r	.
8r	.
{8d	Es
=2	=2
4g	wohn-
8f#	-te
8e	ein
=3	=3
8eL	Mei-
8dJ	.
8d}	-ſter
{8d	ʒu
=4	=4
8e	Frank-
8g	-furt
8f#	an
8a	dem
=5	=5
4a	Mai-
4g	-ne,
=6	=6
4r	.
8r}	.
{8d	Der
=7	=7
4g	hielt
8f#	ſich
8e	Ge-
=8	=8
8eL	-ſel-
8dJ	.
8d}	-len
{8d	ʒu
=9	=9
8e	ʒwei-
8g	-en
8f#	und
8a	ʒu
=10	=10
4a	drei-
4g	-en.
=11	=11
4r}	.
{8g	Und
8a	der
=12	=12
8b	er-
8b	.
8b	-ſte
8b	der
=13	=13
(<4b	ſprach
8a)}	.
{8b	es
=14	=14
8cc	iſt
8cc	mir
8dd	gar
8b	nicht
=15	=15
4a	wohl,
8r}	.
{8f#	der
=16	=16
8a	ʒwei-
8a	-te
8a	war
8a	be-
=17	=17
8a/L	-ſof-
8ddJ	.
8dd}	-fen,
{8cc	der
=18	=18
8b	drit-
8b	-te
8a	der
8a	war
=19	=19
4g	voll.
4r}	.
==	==
!!!AGN: Staende -, Handwerker -, Gesellen - Lied
!!!ONB: ESAC (Essen Associative Code) Database: ERK3
!!!AMT: simple duple
!!!AIN: vox
!!!EED: Helmut Schaffrath
!!!EEV: 1.0
!!!RDF**kern: <= below
!!!GTL: Staendelieder (Berufslieder). 8. Handwerkerlieder.
!!!URL-scan: https://rosdok.uni-rostock.de/mcrviewer/recordIdentifier/rosdok_ppn745177999/iview2/phys_0443.iview2?x=-449.8344612962892&y=608.4437265370507&scale=0.47549036216460333&rotation=0&layout=singlePageLayout
!!!ENC: Anna Maria Matuszewska
!!!EEV: 2025/08/01
*-	*-
